src/assets/img/icons/duotone-icons/Media/Repeat-one.svg

<?xml version="1.0" encoding="UTF-8"?>
<svg width="24px" height="24px" viewBox="0 0 24 24" version="1.1" xmlns="http://www.w3.org/2000/svg" xmlns:xlink="http://www.w3.org/1999/xlink">
    <!-- Generator: Sketch 52.2 (67145) - http://www.bohemiancoding.com/sketch -->
    <title>Stockholm-icons / Media / Repeat-one</title>
    <desc>Created with Sketch.</desc>
    <g id="Stockholm-icons-/-Media-/-Repeat-one" stroke="none" stroke-width="1" fill="none" fill-rule="evenodd">
        <rect id="bound" x="0" y="0" width="24" height="24"></rect>
        <path d="M21.9969433,12.1933592 C21.8948657,15.4175796 19.2490111,18 16,18 L12.0583175,18 L12.0583175,18.9825492 C12.0583175,19.2586916 11.8344599,19.4825492 11.5583175,19.4825492 C11.4509855,19.4825492 11.3465023,19.4480108 11.2603165,19.3840407 L8.40328311,17.263451 C8.18154548,17.0988696 8.13521119,16.7856962 8.29979258,16.5639585 C8.32872576,16.5249774 8.36318164,16.4904176 8.40207551,16.4613672 L11.2591089,14.3274051 C11.48035,14.1621567 11.7936615,14.2075478 11.9589099,14.4287888 C12.0234473,14.5151942 12.0583175,14.6201505 12.0583175,14.7279974 L12.0583175,16 L16,16 C17.6264832,16 19.0262317,15.0292331 19.6514501,13.6354945 C20.5364094,13.3251939 21.3338787,12.8288439 21.9969433,12.1933592 Z" id="Combined-Shape" fill="#335EEA" opacity="0.3"></path>
        <path d="M12.1000181,6 C12.5632884,3.71775968 14.5810421,2 17,2 C19.7614237,2 22,4.23857625 22,7 C22,9.76142375 19.7614237,12 17,12 C14.5810421,12 12.5632884,10.2822403 12.1000181,8 L8,8 C5.790861,8 4,9.790861 4,12 L4,13 C4,14.6568542 5.34314575,16 7,16 L7,18 C4.23857625,18 2,15.7614237 2,13 L2,12 C2,8.6862915 4.6862915,6 8,6 L12.1000181,6 Z M16.7300002,5.668 L16.7300002,9.5 L17.6900002,9.5 L17.6900002,4.5 L16.8180002,4.5 L15.0500002,5.924 L15.6100002,6.588 L16.7300002,5.668 Z" id="Combined-Shape" fill="#335EEA"></path>
    </g>
</svg>

<svg width="24" height="24" viewBox="0 0 24 24" xmlns="http://www.w3.org/2000/svg"><g fill="none" fill-rule="evenodd"><path d="M0 0h24v24H0z"/><path d="M21.997 12.193A6 6 0 0116 18h-3.942v.983a.5.5 0 01-.798.401l-2.857-2.12a.5.5 0 010-.803l2.856-2.134a.5.5 0 01.8.401V16H16a4 4 0 003.651-2.365 6.5 6.5 0 002.346-1.442z" fill="#335EEA" opacity=".3"/><path d="M12.1 6A5.002 5.002 0 0122 7a5 5 0 01-9.9 1H8a4 4 0 00-4 4v1a3 3 0 003 3v2a5 5 0 01-5-5v-1a6 6 0 016-6h4.1zm4.63-.332V9.5h.96v-5h-.872L15.05 5.924l.56.664 1.12-.92z" fill="#335EEA"/></g></svg>
